assets/icons/mail/forwarded.svg

<?xml version="1.0" encoding="UTF-8" standalone="no"?>
<svg
   viewBox="0 0 24 24"
   height="24"
   width="24"
   version="1.1"
   id="svg4"
   sodipodi:docname="forwarded.svg"
   inkscape:version="1.2 (1:1.2.1+202207142221+cd75a1ee6d)"
   xmlns:inkscape="http://www.inkscape.org/namespaces/inkscape"
   xmlns:sodipodi="http://sodipodi.sourceforge.net/DTD/sodipodi-0.dtd"
   xmlns="http://www.w3.org/2000/svg"
   xmlns:svg="http://www.w3.org/2000/svg">
  <defs
     id="defs8" />
  <sodipodi:namedview
     id="namedview6"
     pagecolor="#ffffff"
     bordercolor="#666666"
     borderopacity="1.0"
     inkscape:pageshadow="2"
     inkscape:pageopacity="0.0"
     inkscape:pagecheckerboard="0"
     showgrid="true"
     inkscape:snap-page="true"
     inkscape:zoom="32"
     inkscape:cx="7.78125"
     inkscape:cy="13.46875"
     inkscape:window-width="1920"
     inkscape:window-height="1043"
     inkscape:window-x="0"
     inkscape:window-y="0"
     inkscape:window-maximized="1"
     inkscape:current-layer="svg4"
     inkscape:showpageshadow="2"
     inkscape:deskcolor="#d1d1d1">
    <inkscape:grid
       type="xygrid"
       id="grid6" />
  </sodipodi:namedview>
  <path
     style="fill:#808080;stroke-width:1"
     d="m 5.0149997,6 -0.35625,0.5475 7.3412503,5.275001 7.34375,-5.295001 -0.35625,-0.5275 -6.9875,4.21625 z"
     id="path1048" />
  <path
     id="path864"
     style="color:#000000;fill:#808080;fill-opacity:1"
     d="m 19.212891,3 c 0.676942,0.00559 1.250605,0.048153 1.759765,0.3027344 0.339441,0.1697202 0.630007,0.4624356 0.796875,0.8378906 0.16687,0.375455 0.230469,0.8177114 0.230469,1.359375 v 2.5 5 2.5 c 0,0.541662 -0.0636,0.983919 -0.230469,1.359375 -0.166868,0.375456 -0.457434,0.66817 -0.796875,0.837891 -0.50916,0.254581 -1.082823,0.297134 -1.759765,0.302734 -0.225648,0.0019 -0.462892,0 -0.712891,0 h -2.5 v -1 h 2.5 c 0.999994,0 1.706231,-0.03671 2.027344,-0.197266 0.160556,-0.08028 0.244995,-0.162567 0.328125,-0.349609 0.08313,-0.187042 0.144531,-0.494793 0.144531,-0.953125 v -2.5 -5 -2.5 c 0,-0.4583304 -0.0614,-0.7660836 -0.144531,-0.953125 -0.08313,-0.1870414 -0.167569,-0.2693313 -0.328125,-0.3496094 -0.321113,-0.1605561 -1.02735,-0.1972656 -2.027344,-0.1972656 h -13 c -0.999994,0 -1.70623,0.036708 -2.027344,0.1972656 -0.160557,0.080279 -0.244995,0.162568 -0.328125,0.3496094 -0.08313,0.1870414 -0.144531,0.4947946 -0.144531,0.953125 v 2.5 5 1.5 c 0,1.388886 0.422973,2.188006 1.166016,2.71875 0.743041,0.530744 1.889542,0.78125 3.333984,0.78125 h 1.498047 l 0.002,-2.650391 c 0.982744,0.462142 1.951288,0.953903 2.904297,1.47461 0.976249,0.538749 1.91672,1.089141 2.824219,1.65039 -0.907499,0.5725 -1.84797,1.12922 -2.824219,1.667969 -0.984999,0.53625 -1.954298,1.022032 -2.904297,1.457031 l -0.002,-2.599609 h -1.498047 c -1.555552,0 -2.909061,-0.249497 -3.916016,-0.96875 -1.006954,-0.719253 -1.583984,-1.920142 -1.583984,-3.53125 v -1.5 -5 -2.5 c 0,-0.5416636 0.0636,-0.98392 0.230469,-1.359375 0.16687,-0.375455 0.457432,-0.6681704 0.796875,-0.8378906 0.67888,-0.3394409 1.472662,-0.3027344 2.472656,-0.3027344 h 13 c 0.249999,0 0.487243,-0.00186 0.712891,0 z"
     sodipodi:nodetypes="ccssccssscsccssssccssssssssccssscccccccsssccsssssc" />
</svg>

<svg height="24" width="24" xmlns="http://www.w3.org/2000/svg"><path style="fill:gray;stroke-width:1" d="m5.015 6-.356.547L12 11.823l7.344-5.296L18.987 6 12 10.216z"/><path style="color:#000;fill:gray;fill-opacity:1" d="M19.213 3c.677.006 1.25.048 1.76.303.34.17.63.462.797.838.166.375.23.817.23 1.359v10c0 .542-.064.984-.23 1.36a1.72 1.72 0 0 1-.797.837c-.51.255-1.083.297-1.76.303-.226.002-.463 0-.713 0H16v-1h2.5c1 0 1.706-.037 2.027-.197a.615.615 0 0 0 .328-.35c.084-.187.145-.495.145-.953v-10c0-.458-.061-.766-.145-.953a.615.615 0 0 0-.328-.35C20.207 4.037 19.5 4 18.5 4h-13c-1 0-1.706.037-2.027.197a.615.615 0 0 0-.328.35C3.06 4.734 3 5.042 3 5.5v9c0 1.389.423 2.188 1.166 2.719.743.53 1.89.781 3.334.781h1.498L9 15.35c.983.462 1.951.954 2.904 1.474.977.539 1.917 1.09 2.825 1.65a56.02 56.02 0 0 1-2.825 1.669A47.045 47.045 0 0 1 9 21.6L8.998 19H7.5c-1.556 0-2.91-.25-3.916-.969C2.577 17.312 2 16.111 2 14.5v-9c0-.542.064-.984.23-1.36a1.72 1.72 0 0 1 .797-.837C3.707 2.963 4.5 3 5.5 3h13c.25 0 .487-.002.713 0z"/></svg>
